assets/icons/app_icon.svg

<svg fill="none" height="764" viewBox="0 0 764 764" width="764" xmlns="http://www.w3.org/2000/svg"><path d="m764 77.307v283.693h-304.79c-9.71-35-41.21-59-77.21-59-47 0-80 37.181-80 80 0 35.015 22.5 67.21 59 77.21v304.79h-284.5449c-42.2432 0-76.4551-34.593-76.4551-77.202v-283.798h50 50c12.099 0 22-8.766 22-21s-9.901-21-22-21h-50-50v-283.693c0-42.714 34.1076-77.307 76.4551-77.307h284.5449v50 50c0 12.34 8.692 22 21 22 12.204 0 21-9.66 21-22v-50-49.99993782l284.575-.00006218c42.139.105467 76.425 34.593 76.425 77.307z" fill="#7b1a1e"/><path d="m764 403v283.482c0 42.609-34.212 77.202-76.351 77.202h-284.649v-304.474c23.5-6.21 48-25.71 56.21-56.21z" fill="#527ba1"/></svg>

<svg width="764" height="764" viewBox="0 0 764 764" fill="none" xmlns="http://www.w3.org/2000/svg">
<path d="M764 77.307V361H459.21C449.5 326 418 302 382 302C335 302 302 339.181 302 382C302 417.015 324.5 449.21 361 459.21V764H76.4551C34.2119 764 0 729.407 0 686.798V403H50H100C112.099 403 122 394.234 122 382C122 369.766 112.099 361 100 361H50H0V77.307C0 34.593 34.1076 0 76.4551 0H361V50V100C361 112.34 369.692 122 382 122C394.204 122 403 112.34 403 100V50V6.21831e-05L687.575 0C729.714 0.105467 764 34.593 764 77.307Z" fill="#7B1A1E"/>
<path d="M764 403V686.482C764 729.091 729.788 763.684 687.649 763.684H403V459.21C426.5 453 451 433.5 459.21 403H764Z" fill="#527BA1"/>
</svg>
